X:159
T:The Law Of God Is Good And Wise
%%stretchlast false
M:4/4
L:1/4
K:F clef=C1
"^vi"[DFd]2 [Df] "^IV"[B,Dd] | "^iii"[A,Ec] "^ii"[G,Gd] "^I"[F,Af]/ [G,Af]/ "^iii"[A,Ae] | "^vi"[D,Fd]2 "^iv"[B,Bf]2 | "^ii"[G,Bg] "^v"[Ccg] "^I"[F,ca] "^iv"[B,Bf] | "^ii"[G,Bg] "^v"[Ccg] "^I"[F,ca]2 | [F,Fa]2 "^iv"[B,Fb] "^I"[F,Fa] | "^v"[CGc'] "^vi"[DFa] "^ii¹"[B,Bg] "^v"[CGg] | "^I"[F,Af]2 [F,Fa]2 | "^iv"[B,Ff] "^ii"[G,Bg] "^I¹"[A,Af] "^V"[CGe] | "^vi"[DFd] "^V/vi"[A,E_d] "^vi"[D,Fd]2 |]
